svg/300/sharp/panorama_vertical.svg

<svg xmlns="http://www.w3.org/2000/svg" width="48" height="48" viewBox="0 -960 960 960"><path d="M235.308-145.385h489.999q-27.077-81.231-39.066-165.192Q674.252-394.539 674.252-480t11.989-169.615q11.989-84.154 39.066-165H235.308q26.462 80.846 38.077 165Q285-565.461 285-480q0 85.461-11.615 169.423-11.615 83.961-38.077 165.192Zm-64.921 45.384q21.461-57.001 45.73-154.808Q240.386-352.616 240.386-480t-24.269-225.191q-24.269-97.807-45.73-154.808h619.226q-21.461 57.001-45.346 154.808Q720.383-607.384 720.383-480t23.884 225.191q23.885 97.807 45.346 154.808H170.387ZM480.615-480Z"/></svg>

<svg xmlns="http://www.w3.org/2000/svg" width="48" height="48" viewBox="0 -960 960 960"><path d="M235.31-145.39h490q-27.08-81.23-39.07-165.19-11.99-83.96-11.99-169.42t11.99-169.62q11.99-84.15 39.07-164.99h-490q26.46 80.84 38.08 164.99Q285-565.46 285-480q0 85.46-11.61 169.42-11.62 83.96-38.08 165.19ZM170.39-100q21.46-57 45.73-154.81 24.27-97.81 24.27-225.19t-24.27-225.19Q191.85-803 170.39-860h619.22q-21.46 57-45.34 154.81-23.89 97.81-23.89 225.19t23.89 225.19Q768.15-157 789.61-100H170.39Zm310.23-380Z"/></svg>
